src/basic/800/u1F5E9u1F5E8-speech-baloons.svg

<svg width="17" height="16" viewBox="0 0 17 16" fill="none" xmlns="http://www.w3.org/2000/svg">
<path d="M1.22275,11.3318l0.41452,-0.2796c0.08681,0.1287 0.10891,0.2904 0.05982,0.4377zM2.74048,12.7532l-0.15811,-0.4744c0.13807,-0.046 0.28935,-0.0296 0.41433,0.045zM0.5,13.5l0.15811,0.4743c-0.17967,0.0599 -0.37775,0.0132 -0.51167,-0.1207c-0.13392,-0.134 -0.18068,-0.332 -0.12079,-0.5117zM1,9c0,0.74799 0.23087,1.4496 0.63727,2.0522l-0.82905,0.5591c-0.51091,-0.7575 -0.80822,-1.65204 -0.80822,-2.6113zM5.5,5c-2.53614,0 -4.5,1.83911 -4.5,4h-1c0,-2.80967 2.51329,-5 5.5,-5zM10,9c0,-2.16089 -1.96386,-4 -4.5,-4v-1c2.98671,0 5.5,2.19033 5.5,5zM5.5,13c2.53614,0 4.5,-1.8391 4.5,-4h1c0,2.8097 -2.51329,5 -5.5,5zM2.9967,12.3238c0.7133,0.4257 1.57341,0.6762 2.5033,0.6762v1c-1.11011,0 -2.14732,-0.2992 -3.01574,-0.8175zM2.89859,13.2275l-2.24048,0.7468l-0.31623,-0.9486l2.24048,-0.7469zM0.02566,13.3419l0.72275,-2.1683l0.94868,0.3163l-0.72275,2.1682z" fill="black"/>
<path fill-rule="evenodd" clip-rule="evenodd" d="M7.35864,3.25246c0.97738,-0.78301 2.25862,-1.25246 3.64136,-1.25246c2.9867,0 5.5,2.19033 5.5,5c0,0.87128 -0.2453,1.68921 -0.6731,2.39953l0.6474,1.94237c0.0599,0.1797 0.0131,0.3777 -0.1208,0.5117c-0.1339,0.1339 -0.332,0.1806 -0.5116,0.1207l-2.0291,-0.6763c-0.7878,0.4267 -1.701,0.6785 -2.6739,0.7004c0.2046,-0.3266 0.3771,-0.6742 0.5127,-1.04c0.6797,-0.0877 1.3083,-0.3103 1.8517,-0.6346c0.125,-0.0746 0.2762,-0.091 0.4143,-0.045l1.2918,0.4306l-0.4065,-1.21953c-0.0491,-0.14727 -0.027,-0.309 0.0598,-0.4377c0.4064,-0.60255 0.6373,-1.30418 0.6373,-2.05217c0,-2.16089 -1.9639,-4 -4.5,-4c-0.9372,0 -1.79629,0.25115 -2.50697,0.67687c-0.3617,-0.17313 -0.74148,-0.31559 -1.13439,-0.42441z" fill="black"/>
</svg>

<svg width="17" height="16" viewBox="0 0 17 16" fill="none" xmlns="http://www.w3.org/2000/svg">
<path d="M1.22275 11.3318L1.63727 11.0522C1.72408 11.1809 1.74618 11.3426 1.69709 11.4899L1.22275 11.3318ZM2.74048 12.7532L2.58237 12.2788C2.72044 12.2328 2.87172 12.2492 2.9967 12.3238L2.74048 12.7532ZM0.5 13.5L0.658113 13.9743C0.478447 14.0342 0.280363 13.9875 0.146446 13.8536C0.0125303 13.7196 -0.0342312 13.5216 0.0256586 13.3419L0.5 13.5ZM1 9C1 9.74799 1.23087 10.4496 1.63727 11.0522L0.808222 11.6113C0.297308 10.8538 0 9.95926 0 9H1ZM5.5 5C2.96386 5 1 6.83911 1 9H0C0 6.19033 2.51329 4 5.5 4V5ZM10 9C10 6.83911 8.03614 5 5.5 5V4C8.48671 4 11 6.19033 11 9H10ZM5.5 13C8.03614 13 10 11.1609 10 9H11C11 11.8097 8.48671 14 5.5 14V13ZM2.9967 12.3238C3.71 12.7495 4.57011 13 5.5 13V14C4.38989 14 3.35268 13.7008 2.48426 13.1825L2.9967 12.3238ZM2.89859 13.2275L0.658113 13.9743L0.341887 13.0257L2.58237 12.2788L2.89859 13.2275ZM0.0256586 13.3419L0.748406 11.1736L1.69709 11.4899L0.974341 13.6581L0.0256586 13.3419Z" fill="black"/>
<path fill-rule="evenodd" clip-rule="evenodd" d="M8.49303 3.67687C9.20371 3.25115 10.0628 3 11 3C13.5361 3 15.5 4.83911 15.5 7C15.5 7.74799 15.2691 8.44962 14.8627 9.05217C14.7759 9.18087 14.7538 9.3426 14.8029 9.48987L15.2094 10.7094L13.9176 10.2788C13.7795 10.2328 13.6283 10.2492 13.5033 10.3238C12.9599 10.6481 12.3313 10.8707 11.6516 10.9584C11.516 11.3242 11.3435 11.6718 11.1389 11.9984C12.1118 11.9765 13.025 11.7247 13.8128 11.298L15.8419 11.9743C16.0215 12.0342 16.2196 11.9875 16.3535 11.8536C16.4874 11.7196 16.5342 11.5216 16.4743 11.3419L15.8269 9.39953C16.2547 8.68921 16.5 7.87128 16.5 7C16.5 4.19033 13.9867 2 11 2C9.61726 2 8.33602 2.46945 7.35864 3.25246C7.75155 3.36128 8.13133 3.50374 8.49303 3.67687Z" fill="black"/>
</svg>
